Papirus/16x16/apps/lutris_touhou-luna-nights.svg

<svg width="16" height="16" version="1.1" xmlns="http://www.w3.org/2000/svg">
 <circle cx="8" cy="8" r="8" style="fill:#0048a1"/>
 <path d="m8.968456 3.001953a7.7823282 7.7824206 0 0 0-1.2792213 0.0742153l-0.7284729 0.1015577a2.4102184 2.410247 0 0 0-0.8749472 0.3027201l-0.3613076 0.2089744a2.5535361 2.5535665 0 0 0-0.8300289 0.775354l-0.1718649 0.2538942a2.5693009 2.5693314 0 0 0-0.3827893 0.8886299l-0.2851391 1.2850954a1.0562257 1.0562383 0 0 0-0.0253885 0.1992094l-0.0292983 1.0429194a0.01899448 0.0189947 0 0 0 0.037108 0.00781l0.2558447-0.5976258a2.6698036 2.6698354 0 0 0 0.066406-0.1855381l-0.042967 0.1874911a0.85489977 0.85490993 0 0 0-0.019529 0.2714716l0.050777 0.5683325a0.45481076 0.45481616 0 0 0 0.058587 0.1874911l0.054687 0.095698a0.01578353 0.01578371 0 0 0 0.029298-0.00586l0.091795-0.4413855a1.5655659 1.5655845 0 0 1 0.054687-0.1933501l0.085935-0.2519412a0.01501429 0.01501447 0 0 1 0.029298 0.00195l0.080075 0.3085791a6.5598694 6.5599473 0 0 1 0.048826 0.1933541l0.1464763 0.6503598a1.9337062 1.9337292 0 0 0 0.1249926 0.478493l0.058586 0.1464775c-0.059176 0.081366-0.1020409 0.1770041-0.1249926 0.2792837-0.034578 0.1570411-0.019349 0.3197314 0.042968 0.4570094-0.1144982 0.09772-0.1968234 0.236157-0.2324082 0.39256-0.029868 0.136199-0.022379 0.277218 0.021479 0.402325-0.092425 0.09435-0.1584766 0.218207-0.1894418 0.353498-0.033408 0.151201-0.017759 0.303597 0.035158 0.433573l-0.5527015-0.398418s-0.1998592 0.872583-0.2109255 0.960893l0.4980175-0.02734c-0.041218 0.06839-0.073366 0.143754-0.091794 0.226552-0.044737 0.20491-0.0043 0.414076 0.1093685 0.56638v2e-3c0.0018 0.0084 0.0051 0.01629 0.0098 0.02344l0.066406 0.09375c0.080515 0.116075 0.1823122 0.21573 0.3007632 0.292954l0.5819955 0.382795c0.0042 0.0049 0.012149 2.14e-4 0.0098-0.0059l-0.035231-0.195304c-0.020549-0.115308-0.023819-0.233319-0.0098-0.349592l0.066406-0.535132c8.04e-4 -0.0056-6.07e-4 -0.01112-0.0039-0.01563 2e-3 -0.0058 4e-3 -0.01169 0.0059-0.01758 0.015499-0.06885 0.020819-0.137813 0.017579-0.205068l0.4003674 0.314438 0.4316154-1.103463-0.7030834 0.138665c0.082555-0.09056 0.1462644-0.206705 0.1757706-0.337875 0.030468-0.135964 0.023649-0.276973-0.019529-0.402325 0.091425-0.09413 0.1567567-0.217215 0.1874889-0.351545 0.017569-0.07839 0.022589-0.157003 0.015629-0.234364l0.2636564 0.28514a0.03510374 0.03510416 0 0 0 0.060546-0.02539l-0.021479-0.314438 1.640528 0.335922a0.98096339 0.98097505 0 0 0 0.1972532 0.02148h1.7381782c0.0062 0.03015 0.015309 0.05914 0.025389 0.08789-0.092415 0.09436-0.1584766 0.218207-0.1894418 0.353498-0.033408 0.151201-0.017759 0.303597 0.035158 0.433573l-0.5527449-0.398424s-0.1998582 0.872583-0.2109245 0.960893l0.4980175-0.02734c-0.041227 0.06839-0.073366 0.143754-0.091794 0.226552-0.044737 0.20491-0.0043 0.414076 0.1093685 0.56638v2e-3c0.0018 0.0084 0.0051 0.01629 0.0098 0.02344l0.066406 0.09375c0.080515 0.116075 0.1823122 0.21573 0.3007632 0.292954l0.5819956 0.382795c0.0042 0.0049 0.01215 2.14e-4 0.0098-0.0059l-0.03516-0.195304c-0.02055-0.115308-0.02382-0.233319-0.0098-0.349592l0.06641-0.535132c8.04e-4 -0.0056-6.07e-4 -0.01112-0.0039-0.01563 2e-3 -0.0058 4e-3 -0.01169 0.0059-0.01758 0.0155-0.06885 0.02082-0.137813 0.01758-0.205068l0.400366 0.314438 0.431616-1.103463-0.703084 0.138665c0.08256-0.09056 0.146265-0.206705 0.175771-0.337875 0.03046-0.135964 0.02365-0.276973-0.01953-0.402325 0.09142-0.09413 0.156757-0.217215 0.187489-0.351545 0.03322-0.148164 0.02016-0.301077-0.0332-0.433574l0.158194-0.105464a1.3208208 1.3208364 0 0 0 0.535124-0.7187155l0.290999-0.9667512a0.02820859 0.02820893 0 0 1 0.05469 0l0.187489 0.712857a0.01157285 0.01157298 0 0 0 0.02149-0.00195l0.269515-1.7518732a15.988988 15.989178 0 0 1 0.0332-0.1972563l0.01563-0.095699a0.00883131 0.00883141 0 0 1 0.01758 0l0.06445 0.296861a4.7468228 4.7468792 0 0 1 0.07422 0.4159959l0.03516 0.2773306a0.01468241 0.01468259 0 0 0 0.0293 0.00195l0.166006-0.4863052a1.4996377 1.4996555 0 0 0 0.04883-0.8046494l-0.162229-0.7480161a2.8389567 2.8389905 0 0 0-0.156241-0.4941173 9.4052855 9.4053972 0 0 0-0.88276-1.4198547l-0.384744-0.595675a1.5554772 1.5554957 0 0 0-1.140557-0.7030918l-0.6308219-0.068356a7.7823282 7.7824206 0 0 0-0.6405871-0.0429668z" style="fill:#cccccc"/>
 <path d="m10.947195 7.0008136a0.02606312 0.02623394 0 0 0-0.02136 0.00391l-0.153429 0.099698a35.649586 35.883243 0 0 1-0.454461 0.2932306l-0.141776 0.091879a2.0437557 2.0571511 0 0 0-0.139835 0.095789l-0.14566 0.1094759a0.05177636 0.05211572 0 0 1-0.08157-0.031278l-0.106822-0.6177424a0.04292578 0.04320713 0 0 0-0.07768-0.017594l-0.28938 0.3890193a3.6566012 3.6805676 0 0 1-0.341816 0.4007485l-0.314627 0.3166892a0.06596381 0.06639616 0 0 1-0.09128 0.00391l-0.382608-0.3323282a1.8468654 1.8589703 0 0 1-0.413676-0.5199957l-0.126239-0.2345845a0.06016976 0.06056413 0 0 0-0.102934-0.00391l-0.09517 0.1427057a0.93067516 0.93677507 0 0 0-0.157313 0.5571382l0.01748 0.5004469a0.02137904 0.02151917 0 0 1-0.03302 0.019549l-0.440859-0.2815017a2.0356583 2.0490006 0 0 1-0.563221-0.5356344l-0.184503-0.258043a6.7642346 6.8085693 0 0 0-0.06992 1.8942699 1.6512798 1.6621027 0 0 0 0.745782 1.2139751l0.411734 0.267817a2.6860679 2.7036732 0 0 0 1.819787 0.406613l0.413676-0.05669c0.02767-0.0038 0.05703-0.0081 0.08545-0.01368l0.7788-0.82691a0.90028494 0.90618566 0 0 0 0.120411-0.158345l0.567107-0.953977a0.15118335 0.15217425 0 0 0-0.0058-0.1661641l-0.475852-0.664658a0.16147666 0.16253502 0 0 1-0.01165-0.1700738l0.477767-0.9266089a0.02606312 0.02623394 0 0 0-0.01554-0.037143z" style="fill:#e4e4e4"/>
 <path d="m4.6412678 4.9654345-0.6186155-0.9341703a0.13413641 0.13413641 93.192025 0 1 0.0089284-0.1600962l0.6007587-0.7185779a0.08511549 0.08511549 179.49398 0 1 0.1296267-0.00114l0.4073961 0.4701626a0.02046068 0.02046068 150.65455 0 0 0.034946-0.019648l-0.2081041-0.6488764a0.11843842 0.11843842 112.39315 0 1 0.0582165-0.1412918l0.8094961-0.4201723a0.1077234 0.1077234 15.438898 0 1 0.141289 0.039021l0.3323584 0.5383346a0.02167606 0.02167606 160.53982 0 0 0.0399479-0.014115l-0.0757744-0.5973066a0.10960834 0.10960834 125.1455 0 1 0.0850524-0.1208132l0.9375415-0.2074886a0.10664791 0.10664791 30.678349 0 1 0.1254767 0.074438l0.1686412 0.5818224a0.01932688 0.01932688 174.77439 0 0 0.037794-0.00346l0.0586056-0.5858057a0.10689125 0.10689125 138.80527 0 1 0.1098998-0.0961921l0.7871186 0.026078a0.1318967 0.1318967 39.065818 0 1 0.1237407 0.1004384l0.1206489 0.4924589a0.02321039 0.02321039 179.3013 0 0 0.045215-5.514e-4l0.1029682-0.4695556a0.1122918 0.1122918 144.05474 0 1 0.1209182-0.087676l0.7767952 0.078096a0.11444095 0.11444095 46.888372 0 1 0.1029264 0.1099442l0.01557 0.4541312a0.02247782 0.02247782 10.704045 0 0 0.0431 0.00815l0.156195-0.361422a0.09472373 0.09472373 159.92445 0 1 0.129182-0.047211l0.718256 0.3577428a0.12289523 0.12289523 65.611858 0 1 0.06406 0.1412891l-0.07247 0.2752978a0.05096339 0.05096339 41.752083 0 0 0.06775 0.060474l0.318311-0.1237393a0.12618296 0.12618296 17.153843 0 1 0.149773 0.04623l0.380368 0.5544895a0.14354551 0.14354551 90.413404 0 1-0.0012 0.1641005l-0.254623 0.3599354a0.09123507 0.09123507 172.90035 0 1-0.133765 0.01666l-0.429901-0.3675089a1.6999083 1.6999083 29.285988 0 0-0.577918-0.3241268l-0.295698-0.0963487a3.7966719 3.7966719 13.075044 0 0-0.6410916-0.1488924l-0.3742044-0.053275a3.9586163 3.9586163 2.4671562 0 0-0.7767513-0.0334676l-0.5117722 0.0283291a4.1681972 4.1681972 172.88541 0 0-0.5692942 0.0710566l-0.5761686 0.1126306c-0.2011302 0.0393173-0.5140184 0.1432847-0.6945001 0.2405045-0.2061206 0.1110307-0.4644688 0.2607176-0.638825 0.3989369-0.0419668 0.0332687-0.1069987 0.0930158-0.1448056 0.1332586-0.2289526 0.2437031-0.4985047 0.6698958-0.6080895 0.8491356-0.0279665 0.0457428-0.0748067 0.0458299-0.1052997-2.175e-4z" style="fill:#e4e4e4"/>
</svg>

<svg xmlns="http://www.w3.org/2000/svg" width="16" height="16" version="1.1">
 <circle style="fill:#0048a1" cx="8" cy="8" r="8"/>
 <path style="fill:#cccccc" d="M 8.9685,3.002 A 7.7823,7.7824 0 0 0 7.6892,3.0762 L 6.9608,3.1777 A 2.4102,2.4102 0 0 0 6.0858,3.4804 L 5.7245,3.6894 A 2.5535,2.5536 0 0 0 4.8945,4.4648 L 4.7226,4.7187 A 2.5693,2.5693 0 0 0 4.3398,5.6073 L 4.0547,6.8924 A 1.0562,1.0562 0 0 0 4.0293,7.0916 L 4,8.1345 A 0.01899,0.01899 0 0 0 4.0371,8.1423 L 4.293,7.5447 A 2.6698,2.6698 0 0 0 4.3594,7.3592 L 4.3164,7.5467 A 0.8549,0.85491 0 0 0 4.2969,7.8181 L 4.3476,8.3865 A 0.45481,0.45482 0 0 0 4.4062,8.574 L 4.4609,8.6697 A 0.01578,0.01578 0 0 0 4.4902,8.6638 L 4.582,8.2224 A 1.5656,1.5656 0 0 1 4.6367,8.0291 L 4.7226,7.7771 A 0.01501,0.01501 0 0 1 4.7519,7.7791 L 4.832,8.0876 A 6.5599,6.5599 0 0 1 4.8808,8.281 L 5.0273,8.9314 A 1.9337,1.9337 0 0 0 5.1523,9.4099 L 5.2109,9.5563 C 5.1517,9.6377 5.1088,9.7333 5.0859,9.8356 5.0513,9.9927 5.0665,10.155 5.1289,10.293 5.0144,10.39 4.932,10.529 4.8964,10.685 4.8666,10.821 4.8741,10.962 4.9179,11.088 4.8255,11.182 4.7595,11.306 4.7285,11.441 4.6951,11.592 4.7107,11.745 4.7636,11.875 L 4.2109,11.476 C 4.2109,11.476 4.0111,12.349 4,12.437 L 4.498,12.41 C 4.4568,12.478 4.4247,12.553 4.4062,12.636 4.3615,12.841 4.4019,13.05 4.5156,13.203 V 13.205 C 4.5174,13.213 4.5207,13.221 4.5254,13.228 L 4.5918,13.322 C 4.6723,13.438 4.7741,13.538 4.8926,13.615 L 5.4746,13.998 C 5.4788,14.002 5.4867,13.998 5.4844,13.992 L 5.4491,13.796 C 5.4286,13.681 5.4253,13.563 5.4393,13.447 L 5.5057,12.912 C 5.5066,12.906 5.5051,12.901 5.5018,12.896 5.5038,12.89 5.5058,12.884 5.5077,12.878 5.5232,12.81 5.5286,12.741 5.5253,12.673 L 5.9257,12.988 6.3573,11.884 5.6542,12.023 C 5.7368,11.932 5.8005,11.816 5.83,11.685 5.8605,11.549 5.8536,11.408 5.8105,11.283 5.9019,11.189 5.9672,11.066 5.998,10.931 6.0155,10.853 6.0205,10.774 6.0136,10.697 L 6.2772,10.982 A 0.0351,0.0351 0 0 0 6.3378,10.957 L 6.3163,10.642 7.9568,10.978 A 0.98096,0.98098 0 0 0 8.1541,11 H 9.8923 C 9.8985,11.03 9.9076,11.059 9.9177,11.088 9.8252,11.182 9.7592,11.306 9.7282,11.441 9.6948,11.592 9.7105,11.745 9.7634,11.875 L 9.2106,11.476 C 9.2106,11.476 9.0108,12.349 8.9997,12.437 L 9.4977,12.41 C 9.4565,12.478 9.4244,12.553 9.4059,12.636 9.3612,12.841 9.4016,13.05 9.5153,13.203 V 13.205 C 9.5171,13.213 9.5204,13.221 9.5251,13.228 L 9.5915,13.322 C 9.672,13.438 9.7738,13.538 9.8923,13.615 L 10.474,13.998 C 10.478,14.002 10.486,13.998 10.484,13.992 L 10.449,13.796 C 10.428,13.681 10.425,13.563 10.439,13.447 L 10.506,12.912 C 10.506,12.906 10.505,12.901 10.502,12.896 10.504,12.89 10.506,12.884 10.508,12.878 10.523,12.81 10.528,12.741 10.525,12.673 L 10.925,12.988 11.357,11.884 10.654,12.023 C 10.737,11.932 10.8,11.816 10.83,11.685 10.86,11.549 10.853,11.408 10.81,11.283 10.902,11.189 10.967,11.066 10.998,10.931 11.031,10.783 11.018,10.63 10.965,10.498 L 11.123,10.392 A 1.3208,1.3208 0 0 0 11.658,9.6735 L 11.949,8.7068 A 0.02821,0.02821 0 0 1 12.004,8.7068 L 12.191,9.4196 A 0.01157,0.01157 0 0 0 12.213,9.4177 L 12.482,7.6658 A 15.989,15.989 0 0 1 12.515,7.4685 L 12.531,7.3728 A 0.00883,0.00883 0 0 1 12.548,7.3728 L 12.613,7.6697 A 4.7468,4.7469 0 0 1 12.687,8.0857 L 12.722,8.363 A 0.01503,0.01503 0 0 0 12.752,8.365 L 12.918,7.8787 A 1.4996,1.4997 0 0 0 12.966,7.074 L 12.804,6.326 A 2.839,2.839 0 0 0 12.648,5.8319 9.4053,9.4054 0 0 0 11.765,4.412 L 11.38,3.8164 A 1.5555,1.5555 0 0 0 10.24,3.1133 L 9.609,3.0449 A 7.7823,7.7824 0 0 0 8.9685,3.002 Z"/>
 <path style="fill:#e4e4e4" d="M 10.947,7.0008 A 0.02606,0.02623 0 0 0 10.926,7.0047 L 10.772,7.1044 A 35.65,35.883 0 0 1 10.318,7.3977 L 10.176,7.4895 A 2.0438,2.0572 0 0 0 10.036,7.5853 L 9.8907,7.6948 A 0.05178,0.05212 0 0 1 9.8091,7.6635 L 9.7023,7.0458 A 0.04293,0.04321 0 0 0 9.6246,7.0282 L 9.3352,7.4172 A 3.6566,3.6806 0 0 1 8.9934,7.8179 L 8.6788,8.1346 A 0.06596,0.0664 0 0 1 8.5875,8.1385 L 8.2049,7.8062 A 1.8469,1.859 0 0 1 7.7912,7.2862 L 7.665,7.0516 A 0.06017,0.06056 0 0 0 7.562,7.0477 L 7.4669,7.1904 A 0.93068,0.93678 0 0 0 7.3096,7.7476 L 7.327,8.248 A 0.02138,0.02152 0 0 1 7.294,8.2676 L 6.8532,7.9861 A 2.0357,2.049 0 0 1 6.2899,7.4504 L 6.1054,7.1924 A 6.7642,6.8086 0 0 0 6.0355,9.0867 1.6513,1.6621 0 0 0 6.7813,10.301 L 7.193,10.568 A 2.6861,2.7037 0 0 0 9.0128,10.975 L 9.4265,10.918 C 9.4542,10.915 9.4835,10.91 9.5119,10.905 L 10.291,10.078 A 0.90028,0.90619 0 0 0 10.411,9.9194 L 10.978,8.9655 A 0.15118,0.15217 0 0 0 10.972,8.7993 L 10.497,8.1346 A 0.16148,0.16254 0 0 1 10.485,7.9646 L 10.963,7.038 A 0.02606,0.02623 0 0 0 10.947,7.0008 Z"/>
 <path style="fill:#e4e4e4" d="M 4.6413,4.9654 4.0227,4.0313 A 0.13414,0.13414 0 0 1 4.0316,3.8712 L 4.6323,3.1526 A 0.08512,0.08512 0 0 1 4.762,3.1515 L 5.1694,3.6216 A 0.02046,0.02046 0 0 0 5.2043,3.602 L 4.9962,2.9531 A 0.11844,0.11844 0 0 1 5.0544,2.8118 L 5.8639,2.3916 A 0.10772,0.10772 0 0 1 6.0052,2.4306 L 6.3376,2.969 A 0.02168,0.02168 0 0 0 6.3775,2.9549 L 6.3017,2.3576 A 0.10961,0.10961 0 0 1 6.3868,2.2367 L 7.3243,2.0293 A 0.10665,0.10665 0 0 1 7.4498,2.1037 L 7.6184,2.6855 A 0.01933,0.01933 0 0 0 7.6562,2.6821 L 7.7148,2.0963 A 0.10689,0.10689 0 0 1 7.8247,2.0001 L 8.6119,2.0261 A 0.1319,0.1319 0 0 1 8.7356,2.1266 L 8.8563,2.619 A 0.02321,0.02321 0 0 0 8.9015,2.6185 L 9.0044,2.1489 A 0.11229,0.11229 0 0 1 9.1254,2.0613 L 9.9022,2.1393 A 0.11444,0.11444 0 0 1 10.005,2.2493 L 10.021,2.7034 A 0.02248,0.02248 0 0 0 10.064,2.7116 L 10.22,2.3502 A 0.09472,0.09472 0 0 1 10.349,2.3029 L 11.067,2.6607 A 0.1229,0.1229 0 0 1 11.131,2.802 L 11.059,3.0773 A 0.05096,0.05096 0 0 0 11.127,3.1377 L 11.445,3.014 A 0.12618,0.12618 0 0 1 11.595,3.0602 L 11.975,3.6147 A 0.14355,0.14355 0 0 1 11.974,3.7788 L 11.719,4.1388 A 0.09124,0.09124 0 0 1 11.586,4.1554 L 11.156,3.7879 A 1.6999,1.6999 0 0 0 10.578,3.4638 L 10.282,3.3674 A 3.7967,3.7967 0 0 0 9.641,3.2185 L 9.2668,3.1653 A 3.9586,3.9586 0 0 0 8.49,3.1318 L 7.9783,3.1601 A 4.1682,4.1682 0 0 0 7.409,3.2312 L 6.8328,3.3438 C 6.6317,3.3831 6.3188,3.4871 6.1383,3.5843 5.9322,3.6954 5.6738,3.845 5.4995,3.9833 5.4575,4.0165 5.3925,4.0763 5.3547,4.1165 5.1257,4.3602 4.8562,4.7864 4.7466,4.9657 4.7186,5.0114 4.6718,5.0115 4.6413,4.9654 Z"/>
</svg>
